X:270
T:Whistler at the Wake
R:jig
C:Vincent Broderick (1920-2008)
Z:id:hn-jig-270
M:6/8
K:D
FAA AFA|Bdd dfg|fed BdB|AFE EDE|
FAA AFA|Bdd dfg|fed BdB|AFD D3:|
|:fed BdB|AFE EDE|FAA ABF|ABF AFA|
fed BdB|AFE Efg|fed BdB|AFD D3:|
P:variations
|:F2A AFA|Bcd efg|fed ~B3|AFE ~E3|
F2A AFA|Bcd efg|fed ~B3|1 AFD D2E:|2 AFD D2e||
|:fed ~B3|AFE ~E3|DEF ABF|ABF ~A3|
fed ~B3|AFE E2g|fed BdB|1 AFD D2e:|2 AFD D2E||

